X: 7
T: The Mist On The Mountain
R: jig
M: 6/8
L: 1/8
K: Ador
|:EAA ABd|eAA AGE|G3 GAB|dBA GED|
EAA ABd|eAA ABd|efg dBG|BAA A2:|
|:age a3|age edB|AGE G2A|BAB deg|
age a3|age edB|AGE G3|BAA A3|
age a3|age edB|AGE G3|BAB GED|
EDE G2A|B2A ABd|efg dBG|BAA A2||


Tune 256	Setting 12981

